X:299
T: GESTERN BRUEDER KOENNT IHRS GLAUBEN
N: B0351
O: Europa, Mitteleuropa, Deutschland
R: Trink - Lied
M: 2/4
L: 1/16
K: Eb
 | E2G2B2G2 | A2c2c2B2 |
e2c2B2A2 | AGFEF2B,2 |
G2=A2B2G2 | F2e2e2d2 |
e2A2G2E2 | F2D2E4

@@@ Tune index: 2102
